report_00007_2020-12-11T15:55:29.892Z/server-response-time/comparison/line/5_vs_6.svg

<svg width="640" height="500" xmlns="http://www.w3.org/2000/svg" xmlns:xlink="http://www.w3.org/1999/xlink"><path fill="#fff" d="M0 0h640v500H0z"/><defs><path id="d" stroke-width=".222" stroke="currentColor" d="M-1-1h2v2h-2z"/><path id="b" stroke-width=".222" stroke="currentColor" d="M0-1.33l-1.33 2h2.66z"/><path id="f" stroke-width=".222" stroke="currentColor" d="M0 1.33L1.265.411.782-1.067l-1.564-.009-.483 1.487z"/><use xlink:href="#b" id="c" stroke="currentColor" transform="rotate(180)"/><use xlink:href="#d" id="e" stroke="currentColor" transform="rotate(45)"/><circle id="a" stroke-width=".222" stroke="currentColor" cx="0" cy="0" r="1"/></defs><g fill="none" color="#000" stroke="currentColor"><path stroke="#000" d="M53.9 386.5h9m552.1 0h-9"/><text transform="translate(45.6 390.4)" stroke="none" fill="#000" font-family="Arial" font-size="12" text-anchor="end"><tspan>1.4</tspan></text></g><g fill="none" color="#000" stroke="currentColor"><path stroke="#000" d="M53.9 336.4h9m552.1 0h-9"/><text transform="translate(45.6 340.3)" stroke="none" fill="#000" font-family="Arial" font-size="12" text-anchor="end"><tspan>1.6</tspan></text></g><g fill="none" color="#000" stroke="currentColor"><path stroke="#000" d="M53.9 286.2h9m552.1 0h-9"/><text transform="translate(45.6 290.1)" stroke="none" fill="#000" font-family="Arial" font-size="12" text-anchor="end"><tspan>1.8</tspan></text></g><g fill="none" color="#000" stroke="currentColor"><path stroke="#000" d="M53.9 236.1h9m552.1 0h-9"/><text transform="translate(45.6 240)" stroke="none" fill="#000" font-family="Arial" font-size="12" text-anchor="end"><tspan>2</tspan></text></g><g fill="none" color="#000" stroke="currentColor"><path stroke="#000" d="M53.9 185.9h9m552.1 0h-9"/><text transform="translate(45.6 189.8)" stroke="none" fill="#000" font-family="Arial" font-size="12" text-anchor="end"><tspan>2.2</tspan></text></g><g fill="none" color="#000" stroke="currentColor"><path stroke="#000" d="M53.9 135.8h9m552.1 0h-9"/><text transform="translate(45.6 139.7)" stroke="none" fill="#000" font-family="Arial" font-size="12" text-anchor="end"><tspan>2.4</tspan></text></g><g fill="none" color="#000" stroke="currentColor"><path stroke="#000" d="M53.9 85.7h9m552.1 0h-9"/><text transform="translate(45.6 89.6)" stroke="none" fill="#000" font-family="Arial" font-size="12" text-anchor="end"><tspan>2.6</tspan></text></g><g fill="none" color="#000" stroke="currentColor"><path stroke="#000" d="M53.9 35.5h9m552.1 0h-9"/><text transform="translate(45.6 39.4)" stroke="none" fill="#000" font-family="Arial" font-size="12" text-anchor="end"><tspan>2.8</tspan></text></g><g fill="none" color="#000" stroke="currentColor"><path stroke="#000" d="M53.9 428v-9m0-400.9v9"/><text transform="translate(53.9 449.9)" stroke="none" fill="#000" font-family="Arial" font-size="12" text-anchor="middle"><tspan>0</tspan></text></g><g fill="none" color="#000" stroke="currentColor"><path stroke="#000" d="M110.6 428v-9m0-400.9v9"/><text transform="translate(110.6 449.9)" stroke="none" fill="#000" font-family="Arial" font-size="12" text-anchor="middle"><tspan>10</tspan></text></g><g fill="none" color="#000" stroke="currentColor"><path stroke="#000" d="M167.3 428v-9m0-400.9v9"/><text transform="translate(167.3 449.9)" stroke="none" fill="#000" font-family="Arial" font-size="12" text-anchor="middle"><tspan>20</tspan></text></g><g fill="none" color="#000" stroke="currentColor"><path stroke="#000" d="M223.9 428v-9m0-400.9v9"/><text transform="translate(223.9 449.9)" stroke="none" fill="#000" font-family="Arial" font-size="12" text-anchor="middle"><tspan>30</tspan></text></g><g fill="none" color="#000" stroke="currentColor"><path stroke="#000" d="M280.6 428v-9m0-400.9v9"/><text transform="translate(280.6 449.9)" stroke="none" fill="#000" font-family="Arial" font-size="12" text-anchor="middle"><tspan>40</tspan></text></g><g fill="none" color="#000" stroke="currentColor"><path stroke="#000" d="M337.3 428v-9m0-400.9v9"/><text transform="translate(337.3 449.9)" stroke="none" fill="#000" font-family="Arial" font-size="12" text-anchor="middle"><tspan>50</tspan></text></g><g fill="none" color="#000" stroke="currentColor"><path stroke="#000" d="M394 428v-9m0-400.9v9"/><text transform="translate(394 449.9)" stroke="none" fill="#000" font-family="Arial" font-size="12" text-anchor="middle"><tspan>60</tspan></text></g><g fill="none" color="#000" stroke="currentColor"><path stroke="#000" d="M450.6 428v-9m0-400.9v9"/><text transform="translate(450.6 449.9)" stroke="none" fill="#000" font-family="Arial" font-size="12" text-anchor="middle"><tspan>70</tspan></text></g><g fill="none" color="#000" stroke="currentColor"><path stroke="#000" d="M507.3 428v-9m0-400.9v9"/><text transform="translate(507.3 449.9)" stroke="none" fill="#000" font-family="Arial" font-size="12" text-anchor="middle"><tspan>80</tspan></text></g><g fill="none" color="#000" stroke="currentColor"><path stroke="#000" d="M564 428v-9m0-400.9v9"/><text transform="translate(564 449.9)" stroke="none" fill="#000" font-family="Arial" font-size="12" text-anchor="middle"><tspan>90</tspan></text></g><path stroke="#000" d="M53.9 18.1V428H615V18.1H53.9z" fill="none" color="#000"/><text transform="translate(433.7 467.9)" stroke="none" fill="#000" font-family="Arial" font-size="12" text-anchor="end" color="#000"><tspan>pages+cached+noexternal</tspan></text><path stroke="#9400D3" d="M442 464h42.2M53.9 191.5L59.6 393l5.6-194.8 5.7 219.9 5.7-26.6 5.6-83.7 5.7-28.3 5.7-5.8 5.6 98.3 5.7-144.9 5.7 120.1 5.6 61.9 5.7-118.1 5.7 99 5.6-57.1 5.7-38.4 5.7 90 5.7-200.3 5.6 53.4 5.7 49.9 5.7-143.9 5.6 164.4 5.7-65.9 5.7-33.1 5.6 185.8 5.7-82.2 5.7 11.7 5.6-113.5 5.7 119.1 5.7-48.2 5.6-96.3 5.7 188.8 5.7-164.7 5.6 118.4 5.7-70.8 5.7 113.9 5.6-79.3 5.7 37.7 5.7-122.1 5.6 96.5 5.7-55.9 5.7 90.7 5.6-128.1 5.7 73.2 5.7 119.4 5.6-188.6 5.7 4.3 5.7 81L325.9 26l5.7 293.8 5.7 51.7 5.7-130.4 5.6 140.9 5.7 13.8 5.7-80.7 5.6 55.1 5.7-58.1 5.7-32.4 5.6 50.7 5.7-89.5 5.7 11.2 5.6 60.5 5.7 23.3 5.7-60.7 5.6 22.8 5.7 89.3 5.7-14.6 5.6-239.7 5.7 164.5 5.7 57.4 5.6-16.5 5.7-93.8 5.7 158.5 5.6-23.3 5.7-105.4L479 199l5.6 90.2 5.7-128.6L496 388l5.6-194.3 5.7-19 5.7 201.8 5.6-102.1 5.7-49.6 5.7-61.7 5.7 49.2 5.6-140.9 5.7 165.7 5.7-44.1 5.6 120.1L564 388l5.7-139.6 5.6 33.3 5.7 63.5 5.7 57.1 5.6-70.2 5.7-12.8 5.7-178 5.6 248.7 5.7-14" fill="none" color="#000"/><text transform="translate(433.7 485.9)" stroke="none" fill="#000" font-family="Arial" font-size="12" text-anchor="end" color="#000"><tspan>pages+cached+noexternal+nofonts</tspan></text><path stroke="#009E73" d="M442 482h42.2M53.9 308l5.7 24.1 5.6 66.5 5.7-73.3 5.7 87 5.6-154.7L87.9 392l5.7-134.6h5.6l5.7 35.4 5.7 107.8 5.6-20.1 5.7-118.8 5.7 41.3 5.6 97.8 5.7-8.5 5.7-205.9 5.7 179.6 5.6 42.6 5.7-266 5.7 249.4 5.6-68.9 5.7-10.3 5.7-20.6 5.6 92.1 5.7-92.1 5.7 16.6 5.6-228.7 5.7 321.5 5.7-120.4 5.6 56.2 5.7 43.4 5.7-112.6 5.6 140.4 5.7-84.3 5.7-82.7 5.6 170.7 5.7-227.6 5.7 203.6 5.6-81.8 5.7-9.5 5.7 24.8 5.6-81.7 5.7 129.1 5.7 22.8 5.6-108 5.7-89.8 5.7 44.9 5.6 30.6 5.7 148.9 5.7 1.5 5.7-120.8 5.6-93.8 5.7 30.6 5.7 174.7 5.6-51.9 5.7-77.2L377 307l5.6 81 5.7 9.8 5.7-86.5 5.6 60.7 5.7-49.4 5.7-50.4 5.6 36.6 5.7-48.9 5.7 41.9 5.6 68.4 5.7-34.6L445 307l5.6 12.8 5.7 45.7 5.7 26.8 5.6-107.6 5.7 104.3 5.7-61.9 5.6-50.4 5.7 30.1 5.7 79.7 5.6-125.3 5.7 155.9 5.7-54.4 5.6-100.5 5.7 132.8 5.7 9.8 5.7-135.1 5.6 92.2 5.7 31.4 5.7-180 5.6 187.8 5.7-31.4 5.7-183.8 5.6 210.6L581 297l5.7-61.2 5.6 166.5 5.7-63.4 5.7-145.4 5.6 203.3 5.7-54.2" fill="none" color="#000"/><g fill="none" color="#000" stroke="currentColor"><path stroke="#000" d="M53.9 18.1V428H615V18.1H53.9z"/></g></svg>

<?xml version="1.0" encoding="utf-8"  standalone="no"?>
<svg 
 width="640" height="500"
 viewBox="0 0 640 500"
 xmlns="http://www.w3.org/2000/svg"
 xmlns:xlink="http://www.w3.org/1999/xlink"
>

<title>Gnuplot</title>
<desc>Produced by GNUPLOT 5.4 patchlevel 0 </desc>

<g id="gnuplot_canvas">

<rect x="0" y="0" width="640" height="500" fill="#ffffff"/>
<defs>

	<circle id='gpDot' r='0.5' stroke-width='0.5' stroke='currentColor'/>
	<path id='gpPt0' stroke-width='0.222' stroke='currentColor' d='M-1,0 h2 M0,-1 v2'/>
	<path id='gpPt1' stroke-width='0.222' stroke='currentColor' d='M-1,-1 L1,1 M1,-1 L-1,1'/>
	<path id='gpPt2' stroke-width='0.222' stroke='currentColor' d='M-1,0 L1,0 M0,-1 L0,1 M-1,-1 L1,1 M-1,1 L1,-1'/>
	<rect id='gpPt3' stroke-width='0.222' stroke='currentColor' x='-1' y='-1' width='2' height='2'/>
	<rect id='gpPt4' stroke-width='0.222' stroke='currentColor' fill='currentColor' x='-1' y='-1' width='2' height='2'/>
	<circle id='gpPt5' stroke-width='0.222' stroke='currentColor' cx='0' cy='0' r='1'/>
	<use xlink:href='#gpPt5' id='gpPt6' fill='currentColor' stroke='none'/>
	<path id='gpPt7' stroke-width='0.222' stroke='currentColor' d='M0,-1.33 L-1.33,0.67 L1.33,0.67 z'/>
	<use xlink:href='#gpPt7' id='gpPt8' fill='currentColor' stroke='none'/>
	<use xlink:href='#gpPt7' id='gpPt9' stroke='currentColor' transform='rotate(180)'/>
	<use xlink:href='#gpPt9' id='gpPt10' fill='currentColor' stroke='none'/>
	<use xlink:href='#gpPt3' id='gpPt11' stroke='currentColor' transform='rotate(45)'/>
	<use xlink:href='#gpPt11' id='gpPt12' fill='currentColor' stroke='none'/>
	<path id='gpPt13' stroke-width='0.222' stroke='currentColor' d='M0,1.330 L1.265,0.411 L0.782,-1.067 L-0.782,-1.076 L-1.265,0.411 z'/>
	<use xlink:href='#gpPt13' id='gpPt14' fill='currentColor' stroke='none'/>
	<filter id='textbox' filterUnits='objectBoundingBox' x='0' y='0' height='1' width='1'>
	  <feFlood flood-color='#FFFFFF' flood-opacity='1' result='bgnd'/>
	  <feComposite in='SourceGraphic' in2='bgnd' operator='atop'/>
	</filter>
	<filter id='greybox' filterUnits='objectBoundingBox' x='0' y='0' height='1' width='1'>
	  <feFlood flood-color='lightgrey' flood-opacity='1' result='grey'/>
	  <feComposite in='SourceGraphic' in2='grey' operator='atop'/>
	</filter>
</defs>
<g fill="none" color="#FFFFFF" stroke="black" stroke-width="1.00" stroke-linecap="butt" stroke-linejoin="miter">
</g>
<g fill="none" color="black" stroke="currentColor" stroke-width="1.00" stroke-linecap="butt" stroke-linejoin="miter">
	<path stroke='black'  d='M53.9,386.5 L62.9,386.5 M615.0,386.5 L606.0,386.5  '/>	<g transform="translate(45.6,390.4)" stroke="none" fill="black" font-family="Arial" font-size="12.00"  text-anchor="end">
		<text><tspan font-family="Arial" > 1.4</tspan></text>
	</g>
</g>
<g fill="none" color="black" stroke="currentColor" stroke-width="1.00" stroke-linecap="butt" stroke-linejoin="miter">
	<path stroke='black'  d='M53.9,336.4 L62.9,336.4 M615.0,336.4 L606.0,336.4  '/>	<g transform="translate(45.6,340.3)" stroke="none" fill="black" font-family="Arial" font-size="12.00"  text-anchor="end">
		<text><tspan font-family="Arial" > 1.6</tspan></text>
	</g>
</g>
<g fill="none" color="black" stroke="currentColor" stroke-width="1.00" stroke-linecap="butt" stroke-linejoin="miter">
	<path stroke='black'  d='M53.9,286.2 L62.9,286.2 M615.0,286.2 L606.0,286.2  '/>	<g transform="translate(45.6,290.1)" stroke="none" fill="black" font-family="Arial" font-size="12.00"  text-anchor="end">
		<text><tspan font-family="Arial" > 1.8</tspan></text>
	</g>
</g>
<g fill="none" color="black" stroke="currentColor" stroke-width="1.00" stroke-linecap="butt" stroke-linejoin="miter">
	<path stroke='black'  d='M53.9,236.1 L62.9,236.1 M615.0,236.1 L606.0,236.1  '/>	<g transform="translate(45.6,240.0)" stroke="none" fill="black" font-family="Arial" font-size="12.00"  text-anchor="end">
		<text><tspan font-family="Arial" > 2</tspan></text>
	</g>
</g>
<g fill="none" color="black" stroke="currentColor" stroke-width="1.00" stroke-linecap="butt" stroke-linejoin="miter">
	<path stroke='black'  d='M53.9,185.9 L62.9,185.9 M615.0,185.9 L606.0,185.9  '/>	<g transform="translate(45.6,189.8)" stroke="none" fill="black" font-family="Arial" font-size="12.00"  text-anchor="end">
		<text><tspan font-family="Arial" > 2.2</tspan></text>
	</g>
</g>
<g fill="none" color="black" stroke="currentColor" stroke-width="1.00" stroke-linecap="butt" stroke-linejoin="miter">
	<path stroke='black'  d='M53.9,135.8 L62.9,135.8 M615.0,135.8 L606.0,135.8  '/>	<g transform="translate(45.6,139.7)" stroke="none" fill="black" font-family="Arial" font-size="12.00"  text-anchor="end">
		<text><tspan font-family="Arial" > 2.4</tspan></text>
	</g>
</g>
<g fill="none" color="black" stroke="currentColor" stroke-width="1.00" stroke-linecap="butt" stroke-linejoin="miter">
	<path stroke='black'  d='M53.9,85.7 L62.9,85.7 M615.0,85.7 L606.0,85.7  '/>	<g transform="translate(45.6,89.6)" stroke="none" fill="black" font-family="Arial" font-size="12.00"  text-anchor="end">
		<text><tspan font-family="Arial" > 2.6</tspan></text>
	</g>
</g>
<g fill="none" color="black" stroke="currentColor" stroke-width="1.00" stroke-linecap="butt" stroke-linejoin="miter">
	<path stroke='black'  d='M53.9,35.5 L62.9,35.5 M615.0,35.5 L606.0,35.5  '/>	<g transform="translate(45.6,39.4)" stroke="none" fill="black" font-family="Arial" font-size="12.00"  text-anchor="end">
		<text><tspan font-family="Arial" > 2.8</tspan></text>
	</g>
</g>
<g fill="none" color="black" stroke="currentColor" stroke-width="1.00" stroke-linecap="butt" stroke-linejoin="miter">
	<path stroke='black'  d='M53.9,428.0 L53.9,419.0 M53.9,18.1 L53.9,27.1  '/>	<g transform="translate(53.9,449.9)" stroke="none" fill="black" font-family="Arial" font-size="12.00"  text-anchor="middle">
		<text><tspan font-family="Arial" > 0</tspan></text>
	</g>
</g>
<g fill="none" color="black" stroke="currentColor" stroke-width="1.00" stroke-linecap="butt" stroke-linejoin="miter">
	<path stroke='black'  d='M110.6,428.0 L110.6,419.0 M110.6,18.1 L110.6,27.1  '/>	<g transform="translate(110.6,449.9)" stroke="none" fill="black" font-family="Arial" font-size="12.00"  text-anchor="middle">
		<text><tspan font-family="Arial" > 10</tspan></text>
	</g>
</g>
<g fill="none" color="black" stroke="currentColor" stroke-width="1.00" stroke-linecap="butt" stroke-linejoin="miter">
	<path stroke='black'  d='M167.3,428.0 L167.3,419.0 M167.3,18.1 L167.3,27.1  '/>	<g transform="translate(167.3,449.9)" stroke="none" fill="black" font-family="Arial" font-size="12.00"  text-anchor="middle">
		<text><tspan font-family="Arial" > 20</tspan></text>
	</g>
</g>
<g fill="none" color="black" stroke="currentColor" stroke-width="1.00" stroke-linecap="butt" stroke-linejoin="miter">
	<path stroke='black'  d='M223.9,428.0 L223.9,419.0 M223.9,18.1 L223.9,27.1  '/>	<g transform="translate(223.9,449.9)" stroke="none" fill="black" font-family="Arial" font-size="12.00"  text-anchor="middle">
		<text><tspan font-family="Arial" > 30</tspan></text>
	</g>
</g>
<g fill="none" color="black" stroke="currentColor" stroke-width="1.00" stroke-linecap="butt" stroke-linejoin="miter">
	<path stroke='black'  d='M280.6,428.0 L280.6,419.0 M280.6,18.1 L280.6,27.1  '/>	<g transform="translate(280.6,449.9)" stroke="none" fill="black" font-family="Arial" font-size="12.00"  text-anchor="middle">
		<text><tspan font-family="Arial" > 40</tspan></text>
	</g>
</g>
<g fill="none" color="black" stroke="currentColor" stroke-width="1.00" stroke-linecap="butt" stroke-linejoin="miter">
	<path stroke='black'  d='M337.3,428.0 L337.3,419.0 M337.3,18.1 L337.3,27.1  '/>	<g transform="translate(337.3,449.9)" stroke="none" fill="black" font-family="Arial" font-size="12.00"  text-anchor="middle">
		<text><tspan font-family="Arial" > 50</tspan></text>
	</g>
</g>
<g fill="none" color="black" stroke="currentColor" stroke-width="1.00" stroke-linecap="butt" stroke-linejoin="miter">
	<path stroke='black'  d='M394.0,428.0 L394.0,419.0 M394.0,18.1 L394.0,27.1  '/>	<g transform="translate(394.0,449.9)" stroke="none" fill="black" font-family="Arial" font-size="12.00"  text-anchor="middle">
		<text><tspan font-family="Arial" > 60</tspan></text>
	</g>
</g>
<g fill="none" color="black" stroke="currentColor" stroke-width="1.00" stroke-linecap="butt" stroke-linejoin="miter">
	<path stroke='black'  d='M450.6,428.0 L450.6,419.0 M450.6,18.1 L450.6,27.1  '/>	<g transform="translate(450.6,449.9)" stroke="none" fill="black" font-family="Arial" font-size="12.00"  text-anchor="middle">
		<text><tspan font-family="Arial" > 70</tspan></text>
	</g>
</g>
<g fill="none" color="black" stroke="currentColor" stroke-width="1.00" stroke-linecap="butt" stroke-linejoin="miter">
	<path stroke='black'  d='M507.3,428.0 L507.3,419.0 M507.3,18.1 L507.3,27.1  '/>	<g transform="translate(507.3,449.9)" stroke="none" fill="black" font-family="Arial" font-size="12.00"  text-anchor="middle">
		<text><tspan font-family="Arial" > 80</tspan></text>
	</g>
</g>
<g fill="none" color="black" stroke="currentColor" stroke-width="1.00" stroke-linecap="butt" stroke-linejoin="miter">
	<path stroke='black'  d='M564.0,428.0 L564.0,419.0 M564.0,18.1 L564.0,27.1  '/>	<g transform="translate(564.0,449.9)" stroke="none" fill="black" font-family="Arial" font-size="12.00"  text-anchor="middle">
		<text><tspan font-family="Arial" > 90</tspan></text>
	</g>
</g>
<g fill="none" color="black" stroke="currentColor" stroke-width="1.00" stroke-linecap="butt" stroke-linejoin="miter">
</g>
<g fill="none" color="black" stroke="currentColor" stroke-width="1.00" stroke-linecap="butt" stroke-linejoin="miter">
	<path stroke='black'  d='M53.9,18.1 L53.9,428.0 L615.0,428.0 L615.0,18.1 L53.9,18.1 Z  '/></g>
<g fill="none" color="black" stroke="currentColor" stroke-width="1.00" stroke-linecap="butt" stroke-linejoin="miter">
</g>
	<g id="gnuplot_plot_1" ><title>pages+cached+noexternal</title>
<g fill="none" color="black" stroke="currentColor" stroke-width="1.00" stroke-linecap="butt" stroke-linejoin="miter">
	<g transform="translate(433.7,467.9)" stroke="none" fill="black" font-family="Arial" font-size="12.00"  text-anchor="end">
		<text><tspan font-family="Arial" >pages+cached+noexternal</tspan></text>
	</g>
</g>
<g fill="none" color="black" stroke="currentColor" stroke-width="1.00" stroke-linecap="butt" stroke-linejoin="miter">
	<path stroke='rgb(148,   0, 211)'  d='M442.0,464.0 L484.2,464.0 M53.9,191.5 L59.6,393.0 L65.2,198.2 L70.9,418.1 L76.6,391.5 L82.2,307.8
		L87.9,279.5 L93.6,273.7 L99.2,372.0 L104.9,227.1 L110.6,347.2 L116.2,409.1 L121.9,291.0 L127.6,390.0
		L133.2,332.9 L138.9,294.5 L144.6,384.5 L150.3,184.2 L155.9,237.6 L161.6,287.5 L167.3,143.6 L172.9,308.0
		L178.6,242.1 L184.3,209.0 L189.9,394.8 L195.6,312.6 L201.3,324.3 L206.9,210.8 L212.6,329.9 L218.3,281.7
		L223.9,185.4 L229.6,374.2 L235.3,209.5 L240.9,327.9 L246.6,257.1 L252.3,371.0 L257.9,291.7 L263.6,329.4
		L269.3,207.3 L274.9,303.8 L280.6,247.9 L286.3,338.6 L291.9,210.5 L297.6,283.7 L303.3,403.1 L308.9,214.5
		L314.6,218.8 L320.3,299.8 L325.9,26.0 L331.6,319.8 L337.3,371.5 L343.0,241.1 L348.6,382.0 L354.3,395.8
		L360.0,315.1 L365.6,370.2 L371.3,312.1 L377.0,279.7 L382.6,330.4 L388.3,240.9 L394.0,252.1 L399.6,312.6
		L405.3,335.9 L411.0,275.2 L416.6,298.0 L422.3,387.3 L428.0,372.7 L433.6,133.0 L439.3,297.5 L445.0,354.9
		L450.6,338.4 L456.3,244.6 L462.0,403.1 L467.6,379.8 L473.3,274.4 L479.0,199.0 L484.6,289.2 L490.3,160.6
		L496.0,388.0 L501.6,193.7 L507.3,174.7 L513.0,376.5 L518.6,274.4 L524.3,224.8 L530.0,163.1 L535.7,212.3
		L541.3,71.4 L547.0,237.1 L552.7,193.0 L558.3,313.1 L564.0,388.0 L569.7,248.4 L575.3,281.7 L581.0,345.2
		L586.7,402.3 L592.3,332.1 L598.0,319.3 L603.7,141.3 L609.3,390.0 L615.0,376.0  '/></g>
	</g>
	<g id="gnuplot_plot_2" ><title>pages+cached+noexternal+nofonts</title>
<g fill="none" color="black" stroke="currentColor" stroke-width="1.00" stroke-linecap="butt" stroke-linejoin="miter">
	<g transform="translate(433.7,485.9)" stroke="none" fill="black" font-family="Arial" font-size="12.00"  text-anchor="end">
		<text><tspan font-family="Arial" >pages+cached+noexternal+nofonts</tspan></text>
	</g>
</g>
<g fill="none" color="black" stroke="currentColor" stroke-width="1.00" stroke-linecap="butt" stroke-linejoin="miter">
	<path stroke='rgb(  0, 158, 115)'  d='M442.0,482.0 L484.2,482.0 M53.9,308.0 L59.6,332.1 L65.2,398.6 L70.9,325.3 L76.6,412.3 L82.2,257.6
		L87.9,392.0 L93.6,257.4 L99.2,257.4 L104.9,292.8 L110.6,400.6 L116.2,380.5 L121.9,261.7 L127.6,303.0
		L133.2,400.8 L138.9,392.3 L144.6,186.4 L150.3,366.0 L155.9,408.6 L161.6,142.6 L167.3,392.0 L172.9,323.1
		L178.6,312.8 L184.3,292.2 L189.9,384.3 L195.6,292.2 L201.3,308.8 L206.9,80.1 L212.6,401.6 L218.3,281.2
		L223.9,337.4 L229.6,380.8 L235.3,268.2 L240.9,408.6 L246.6,324.3 L252.3,241.6 L257.9,412.3 L263.6,184.7
		L269.3,388.3 L274.9,306.5 L280.6,297.0 L286.3,321.8 L291.9,240.1 L297.6,369.2 L303.3,392.0 L308.9,284.0
		L314.6,194.2 L320.3,239.1 L325.9,269.7 L331.6,418.6 L337.3,420.1 L343.0,299.3 L348.6,205.5 L354.3,236.1
		L360.0,410.8 L365.6,358.9 L371.3,281.7 L377.0,307.0 L382.6,388.0 L388.3,397.8 L394.0,311.3 L399.6,372.0
		L405.3,322.6 L411.0,272.2 L416.6,308.8 L422.3,259.9 L428.0,301.8 L433.6,370.2 L439.3,335.6 L445.0,307.0
		L450.6,319.8 L456.3,365.5 L462.0,392.3 L467.6,284.7 L473.3,389.0 L479.0,327.1 L484.6,276.7 L490.3,306.8
		L496.0,386.5 L501.6,261.2 L507.3,417.1 L513.0,362.7 L518.6,262.2 L524.3,395.0 L530.0,404.8 L535.7,269.7
		L541.3,361.9 L547.0,393.3 L552.7,213.3 L558.3,401.1 L564.0,369.7 L569.7,185.9 L575.3,396.5 L581.0,297.0
		L586.7,235.8 L592.3,402.3 L598.0,338.9 L603.7,193.5 L609.3,396.8 L615.0,342.6  '/></g>
	</g>
<g fill="none" color="#FFFFFF" stroke="rgb(  0, 158, 115)" stroke-width="2.00" stroke-linecap="butt" stroke-linejoin="miter">
</g>
<g fill="none" color="black" stroke="currentColor" stroke-width="2.00" stroke-linecap="butt" stroke-linejoin="miter">
</g>
<g fill="none" color="black" stroke="black" stroke-width="1.00" stroke-linecap="butt" stroke-linejoin="miter">
</g>
<g fill="none" color="black" stroke="currentColor" stroke-width="1.00" stroke-linecap="butt" stroke-linejoin="miter">
	<path stroke='black'  d='M53.9,18.1 L53.9,428.0 L615.0,428.0 L615.0,18.1 L53.9,18.1 Z  '/></g>
<g fill="none" color="black" stroke="currentColor" stroke-width="1.00" stroke-linecap="butt" stroke-linejoin="miter">
</g>
</g>
</svg>
